apps/site/public/icons/companies/trunk.svg

<svg width="155" height="53" viewBox="0 0 155 53" fill="none" xmlns="http://www.w3.org/2000/svg"><path d="M62.5469 19.2747V13.3359H67.8536V19.2747H72.4241V23.358H67.8536V30.8185C67.8536 32.6003 68.8494 33.3425 70.286 33.3425C71.1343 33.3425 71.9814 33.1941 72.608 32.9714L73.3455 37.24C72.3133 37.7226 70.7652 38.0195 69.4017 38.0195C65.4585 38.0195 62.5469 35.5322 62.5469 31.1159V23.358L62.5469 19.2747Z" fill="#fff"></path><path d="M76.3672 19.2764H81.674V21.3551L81.895 21.4287C83.0746 19.9818 84.8443 18.9053 86.9441 18.9053H87.4606V23.8799H86.5757C84.6227 23.8799 82.9272 24.5477 81.674 25.5862V37.8728H76.3672L76.3672 19.2764Z" fill="#fff"></path><path d="M108.911 29.3726C108.911 34.7182 104.931 38.207 99.6978 38.207C94.5013 38.207 90.4844 34.7182 90.4844 29.3726V19.2764H95.7911V29.3726C95.7911 32.3794 97.4494 33.8269 99.6978 33.8269C101.946 33.8269 103.604 32.3794 103.604 29.3726V19.2764H108.911V29.3726Z" fill="#fff"></path><path d="M112.547 19.2764H117.854V21.3919L118.074 21.4662C119.328 19.9818 121.465 18.9053 124.229 18.9053C127.878 18.9053 130.899 21.541 130.899 26.7001V37.8354H125.593V26.997C125.593 24.3988 123.971 23.2848 122.018 23.2848C120.359 23.2848 118.849 23.8044 117.854 24.9183V37.8354H112.547L112.547 19.2764Z" fill="#fff"></path><path d="M141.922 30.4502L140.447 31.8603V37.8359H135.141V10.7393H140.447V25.81L140.668 25.8842L146.454 19.2769H152.977L153.052 19.4995L145.46 26.9606L154.268 37.6507L154.194 37.8359H147.744L141.922 30.4502Z" fill="#fff"></path><g clip-path="url(#clip0_6233_23822)"><path d="M26.2239 53V47.2593C37.541 47.2593 46.7481 37.9859 46.7481 26.5873C46.7481 15.1885 37.541 5.9152 26.2239 5.9152C14.9067 5.9152 5.69969 15.1885 5.69969 26.5873H0C0 12.023 11.7643 0.17395 26.2239 0.17395C40.6839 0.17395 52.4483 12.023 52.4483 26.5873C52.4483 41.151 40.684 53 26.2239 53H26.2239Z" fill="#fff"></path><path d="M13.4892 27.003H7.78906C7.78906 16.6046 16.0582 8.14465 26.2218 8.14465V13.9763C19.2011 13.9763 13.4892 19.8199 13.4892 27.003Z" fill="#fff"></path><path d="M36.8611 27.0033H31.1615C31.1615 24.2154 28.9447 21.9475 26.2196 21.9475C23.495 21.9475 21.2783 24.2154 21.2783 27.0033H15.5781C15.5781 21 20.3521 16.1163 26.2196 16.1163C32.0871 16.1163 36.8611 21 36.8611 27.0033Z" fill="#fff"></path></g><defs><clipPath id="clip0_6233_23822"><rect width="52.4483" height="52.8261" fill="#fff" transform="translate(0 0.17395)"></rect></clipPath></defs></svg>

<svg xmlns="http://www.w3.org/2000/svg" width="155" height="53" fill="none" viewBox="0 0 155 53"><path fill="#fff" d="M62.547 19.275v-5.94h5.307v5.94h4.57v4.083h-4.57v7.46c0 1.782.995 2.524 2.432 2.524.848 0 1.695-.148 2.322-.37l.737 4.268c-1.032.483-2.58.78-3.943.78-3.943 0-6.855-2.488-6.855-6.904zm13.82.001h5.307v2.08l.221.073c1.18-1.447 2.95-2.524 5.05-2.524h.516v4.975h-.885c-1.953 0-3.649.668-4.902 1.706v12.287h-5.307zm32.544 10.097c0 5.345-3.98 8.834-9.213 8.834-5.197 0-9.214-3.489-9.214-8.834V19.276h5.307v10.097c0 3.006 1.658 4.454 3.907 4.454s3.906-1.448 3.906-4.454V19.276h5.307zm3.636-10.097h5.307v2.116l.22.074c1.254-1.484 3.391-2.56 6.155-2.56 3.649 0 6.67 2.635 6.67 7.794v11.135h-5.306V26.997c0-2.598-1.622-3.712-3.575-3.712-1.659 0-3.169.52-4.164 1.633v12.917h-5.307zm29.375 11.174-1.475 1.41v5.976h-5.306V10.739h5.306V25.81l.221.074 5.786-6.607h6.523l.075.223-7.592 7.46 8.808 10.69-.074.186h-6.45z"/><g fill="#fff" clip-path="url(#a)"><path d="M26.224 53v-5.74c11.317 0 20.524-9.274 20.524-20.673S37.541 5.915 26.224 5.915 5.7 15.188 5.7 26.587H0C0 12.023 11.764.174 26.224.174s26.224 11.849 26.224 26.413S40.684 53 26.224 53"/><path d="M13.49 27.003h-5.7c0-10.398 8.268-18.858 18.432-18.858v5.831c-7.02 0-12.733 5.844-12.733 13.027"/><path d="M36.861 27.003h-5.7c0-2.788-2.216-5.055-4.941-5.055s-4.942 2.267-4.942 5.055h-5.7c0-6.003 4.774-10.887 10.642-10.887S36.86 21 36.86 27.003"/></g><defs><clipPath id="a"><path fill="#fff" d="M0 .174h52.448V53H0z"/></clipPath></defs></svg>
